X:1
T:Come, Poor Sinner
T:Come, Poor Sinner
T:Andrew L. Byers, pub.1911
T:C. Z. Lindley
T:PUBLIC DOMAIN
T:PUBLIC DOMAIN
C:Andrew L. Byers, pub.1911
Z:C. Z. Lindley
Z:PUBLIC DOMAIN
%%score ( 1 2 ) ( 3 4 )
L:1/8
Q:3/8=60
M:9/8
K:G
V:1 treble nm="Treble"
V:2 treble 
V:3 bass nm="Bass"
V:4 bass 
V:1
 (D E)[CF] | [B,G]3 [B,G]3 (([DB] [CA])) [B,G] | [B,D]3 [B,G]3 [DB]2 [Dc] | [Gd]3 [GB]3 (G A)[GB] | %4
w: 1.~O * poor|sin- ner, come * to|Je- sus, Lay on|Him your wea- _ ry|
w: 2.~O * poor|sin- ner, come * to|Je- sus, Now He|speaks so ten- _ der-|
w: 3.~O * poor|sin- ner, come * to|Je- sus, Lay your|heart at His * dear|
w: 4.~O * poor|sin- ner, come * to|Je- sus, Time is|fleet- ing swift- _ ly|
w: 5.~O * poor|sin- ner, come * to|Je- sus, Has- ten,|come, be- fore * too|
 [FA]6 | (D E)[CF] | [B,G]3 [B,G]3 (([DB] [CA])) [B,G] | [B,D]3 [DG]3 [Ec]2 [Ge] | %8
w: soul;|He * will|give you peace * and|par- don, Pu- ri-|
w: ly,|“Come * to|Me, for you * I’ve|suf- fered, Bled and|
w: feet;|He * will|fold you in * His|bos- om, And will|
w: by;|Still * the|lov- ing Sav- _ ior’s|call- ing, Come, oh,|
w: late;|Lest * the|Spir- it cease * His|woo- ing; Sad, then,|
 [Gd]3 [GB]3 (([FA] [GB])) [DA] | [DG]6 ||"^Refrain" [Gd]2 [Gd] | [Fd]3 [FA]3 (([FA] [GB])) [Ac] | %12
w: fy and make * you|whole.|Gent- ly|now the Spir- _ it’s|
w: died on Cal- _ va-|ry.”|||
w: make your rest * com-|plete.|||
w: come, why will * you|die?|||
w: sad will be * your|fate.|||
 [GB]3 [DG]3 [Gd]2 [Gd] | [Ge]3 [Gd]3 (B A)G | [FA]6 | (D E)[CF] | %16
w: whis- p’ring, Woo- ing,|call- ing you * to-|day;|Don’t _ you|
w: ||||
w: ||||
w: ||||
w: ||||
 [B,G]3 [B,G]3 (([DB][CA]))[B,G] | [B,D]3 [DG]3 [Ec]2 [Ge] | [Gd]3 [GB]3 (([FA][GB]))[DA] | %19
w: hear Him soft- _ ly|say- ing, Urg- ing,|plead- ing, “Don’t * de-|
w: |||
w: |||
w: |||
w: |||
 [DG]6 |] %20
w: lay”?|
w: |
w: |
w: |
w: |
V:2
 B,2 z | x9 | x9 | z3 z3 (G F) z | x6 | (D _D) z | x9 | x9 | x9 | x6 || x3 | x9 | x9 | z3 z3 G2 G | %14
 x6 | (D _D) z | x9 | x9 | x9 | x6 |] %20
V:3
 [G,,G,]2 [G,,G,] | [G,,D,]3 [G,,D,]3 [G,,G,]2 [G,,G,] | [G,,G,]3 [G,,G,]3 G,2 [G,A,] | %3
 [G,B,]3 [G,D]3 D2 [G,D] | [D,D]6 | (F, G,)[D,A,] | [G,,G,]3 [G,,D,]3 [G,,D,]2 [G,,D,] | %7
 [G,,G,]3 [B,,G,]3 [C,G,]2 [C,C] | [D,B,]3 [D,D]3 (C D)[D,C] | [G,,B,]6 || [G,B,]2 [G,B,] | %11
 [D,A,]3 [D,D]3 [D,D]2 [D,D] | [G,D]3 [G,B,]3 [G,B,]2 [G,B,] | [G,C]3 [G,B,]3 [E,^C]2 [E,C] | %14
 [D,D]6 | (F, G,)[D,A,] | [G,,G,]3 [G,,D,]3 [G,,D,]2 [G,,D,] | [G,,G,]3 [B,,G,]3 [C,G,]2 [C,C] | %18
 [D,B,]3 [D,D]3 (CD)[D,C] | [G,,B,]6 |] %20
V:4
 x3 | x9 | z3 z3 G,2 z | z3 z3 (B, A,) z | x6 | D,2 z | x9 | x9 | z3 z3 D,2 z | x6 || x3 | x9 | %12
 x9 | x9 | x6 | D,2 z | x9 | x9 | z3 z3 D,2 z | x6 |] %20

